Assets/Images/General/Icons/tree_radar.svg

<svg width="69" height="128" viewBox="0 0 69 128" fill="none" xmlns="http://www.w3.org/2000/svg">
<path fill-rule="evenodd" clip-rule="evenodd" d="M34.9215 1.14258C24.2464 7.74904 10.5213 -1.39837 3.57403 11.984C-1.17045 21.1314 1.87957 57.3822 8.6574 66.3603C15.4352 75.1689 30.5159 74.8301 41.0215 73.9831C60.1689 72.4585 63.5578 65.0051 66.0995 46.3715C68.3023 29.7706 72.7079 11.3064 54.2383 4.69992" fill="#71C047"/>
<path d="M68.4716 32.9892C68.1328 24.0111 68.98 10.7982 61.3549 4.53053C57.1188 1.1426 51.6965 1.1426 46.6132 0.973208C40.6826 0.634415 34.752 0.634423 28.8214 0.465026C19.8407 0.465026 4.42117 -0.72076 1.71004 10.4594C0.185025 16.5577 0.693357 23.3336 1.20169 29.4318C1.71003 36.5465 1.87948 43.6612 2.89615 50.7758C3.91283 57.5517 3.74339 68.5625 9.84344 72.9668C15.774 77.2017 25.0935 76.5241 32.0408 76.3547C31.8714 85.8409 31.7019 95.1577 32.2103 104.644C32.3797 108.201 32.7186 111.759 32.888 115.485C33.0575 118.026 32.3797 123.616 33.7353 125.818C33.5658 125.649 35.4297 124.802 35.4297 124.972C35.2603 125.48 34.0742 125.818 34.4131 126.496C34.752 127.343 35.0909 126.665 35.2603 127.682C35.4297 128.359 37.1242 126.665 37.1242 126.496C38.1409 125.141 37.6325 122.431 37.6325 120.737C37.4631 115.655 36.9548 110.573 36.6159 105.491C36.277 100.07 36.277 94.6495 36.277 89.0594C36.277 86.1797 36.277 83.1305 36.277 80.2508C36.277 76.3547 35.9381 76.1853 39.4964 76.1853C48.816 75.8465 60.1688 76.5241 64.5744 66.5297C69.1495 56.5353 68.8105 43.8305 68.4716 32.9892ZM62.541 58.3987C61.6938 62.6336 60.6771 67.5461 56.6104 69.7482C53.0521 71.781 47.7993 71.4422 43.902 71.6116C42.2076 71.781 39.6659 72.4586 37.9714 71.9504C36.1075 71.4422 37.1242 72.9668 36.277 70.5952C35.7686 69.4094 36.4464 68.5625 36.4464 67.3767C36.6159 62.9724 36.1075 60.0926 38.8186 56.0271C41.3603 52.3004 45.427 49.9288 47.7993 46.0327C48.6465 44.6775 50.341 42.1366 49.1548 40.612C47.4604 38.4099 45.7659 40.7814 44.9187 42.1366C42.7159 45.6939 39.8353 48.2349 36.9548 51.284C37.4631 48.5737 38.8187 45.3551 38.9881 42.6448C39.1575 39.9344 37.4631 37.7323 35.4297 40.7814C32.0408 45.6939 31.8714 55.1801 32.0408 60.9396C28.8213 57.8905 28.4825 55.0107 28.1436 50.7758C28.1436 49.9288 27.1269 35.3607 24.5852 36.0383C22.3824 36.5465 23.2297 44.3387 23.3991 45.8633C23.738 49.7594 23.5685 54.5025 24.9241 58.2293C26.1102 61.2784 28.8214 62.9724 30.6853 65.5133C32.0408 67.5461 32.0408 69.4094 32.2103 72.1198C26.6186 72.1198 19.1629 72.7974 13.9101 70.4258C8.48786 67.8849 8.65731 60.4314 7.97952 55.3495C6.7934 47.7267 6.28506 40.2732 5.77672 32.6504C5.43783 26.3827 4.76007 19.9456 5.60729 13.678C6.96286 3.51416 20.1796 4.86933 28.1436 4.86933C33.9047 4.86933 39.8353 4.86933 45.5965 5.20812C50.0021 5.37752 55.4243 5.03873 58.9827 8.08787C62.5411 11.137 63.0494 15.7107 63.3883 19.9456C63.8966 26.5521 64.405 33.1586 64.405 39.765C64.2355 46.0327 63.8966 52.3004 62.541 58.3987Z" fill="#2C473E"/>
<path d="M12.8935 41.967C13.7408 41.4588 14.2491 39.5954 13.2324 38.9178C13.2324 39.0872 13.4018 39.2566 13.4018 39.2566C12.7241 37.732 11.5379 37.9014 10.8602 38.9178C10.1824 39.5954 10.0129 40.6118 10.5213 41.12C10.5213 41.2894 10.6907 41.4588 10.6907 41.6282C10.8602 41.967 11.3685 41.967 11.7074 42.1364C11.3685 41.967 11.0296 41.7976 10.8602 41.6282C11.5379 42.1364 12.0463 42.4752 12.8935 41.967Z" fill="#2C473E"/>
<path d="M16.2824 53.6558C18.8241 50.6066 12.0463 47.8963 12.8935 52.1312C12.8935 52.3006 13.063 52.6394 13.2324 52.8088C13.5713 54.164 14.9269 55.1803 16.2824 53.6558ZM16.113 51.4536C16.113 51.4536 16.113 51.2842 16.113 51.4536C16.113 51.2842 16.113 51.2842 16.113 51.4536C16.113 51.2842 16.113 51.4536 16.113 51.4536ZM14.588 50.6066C14.588 50.6066 14.4185 50.6066 14.2491 50.776H14.0796C14.2491 50.6066 14.4185 50.6066 14.588 50.6066Z" fill="#2C473E"/>
<path d="M17.4685 62.4643C17.1296 62.1255 16.6213 61.9561 16.1129 62.1255C15.774 62.1255 15.6046 62.2949 15.4351 62.4643C15.0963 62.4643 14.7574 62.6337 14.4185 62.9725C13.7407 63.4807 13.9101 64.6665 14.7574 65.1747C16.6212 67.3768 18.9935 63.3113 17.4685 62.4643Z" fill="#2C473E"/>
<path d="M16.9602 35.869C17.9768 36.3772 19.1629 34.5138 18.9935 33.6668C18.9935 33.8362 18.9935 33.8362 18.8241 33.8362C19.163 31.9729 17.9768 31.4647 16.4518 31.8035C16.1129 32.1423 15.6046 32.6504 15.4352 33.328C15.2657 34.5138 15.6046 35.3608 16.9602 35.869ZM18.6546 33.4974C18.6546 33.4974 18.8241 33.328 18.6546 33.4974C18.8241 33.328 18.6546 33.4974 18.6546 33.4974Z" fill="#2C473E"/>
<path d="M20.8575 58.3987C20.8575 56.5353 19.3325 55.8578 18.1463 57.0435C17.4686 56.8741 16.7908 57.7211 16.7908 58.3987C16.7908 58.9069 17.1297 59.2457 17.4686 59.4151C18.4852 60.4315 21.1964 60.0927 20.8575 58.3987Z" fill="#2C473E"/>
<path d="M10.3518 60.2617C10.6925 60.432 10.3518 60.2617 10.3518 60.2617V60.2617Z" fill="#2C473E"/>
<path d="M10.3518 60.2617C10.5221 60.432 10.5221 60.2617 10.3518 60.2617V60.2617Z" fill="#2C473E"/>
<path d="M11.5379 55.519C10.8601 55.519 10.1823 55.8578 10.1823 56.7048V56.8742C9.67394 57.8906 9.5045 59.4152 10.3517 60.2621C10.6906 60.6009 11.0295 60.7703 11.5379 60.7703C13.9101 61.1091 13.5712 57.213 12.724 56.1966C12.3851 55.6884 12.0462 55.519 11.5379 55.519ZM12.724 57.5518C12.724 57.3824 12.724 57.213 12.724 57.0436C12.8934 57.213 12.8934 57.5518 12.8934 57.7212C12.8934 57.7212 12.724 57.7212 12.724 57.5518Z" fill="#2C473E"/>
<path d="M10.6907 46.0327C10.6907 45.6939 10.6907 45.3551 10.6907 45.0163C10.8601 44 10.1823 43.3224 9.16566 43.4918C8.65732 43.6612 8.48787 44 8.31842 44.3387C8.31842 44.1693 8.31844 44.3388 8.14899 44.5082C7.97954 44.6775 7.97953 44.8469 7.97953 45.0163C6.96285 46.8797 9.67401 48.0655 10.6907 46.0327ZM9.674 46.0327C9.674 45.8633 9.84345 45.8633 9.674 46.0327C9.84345 45.8633 9.84345 46.0327 9.674 46.0327Z" fill="#2C473E"/>
<path d="M7.64062 46.2023C7.64062 46.0329 7.3017 45.5247 7.64062 46.2023V46.2023Z" fill="#2C473E"/>
<path d="M7.81013 35.0215C7.97958 35.5297 8.48791 35.3603 8.99625 35.1909C9.84347 35.3603 10.5212 35.0215 11.0296 34.344C11.199 34.1746 11.199 34.0052 11.199 33.6664C11.5379 32.65 11.3685 31.1254 10.1824 30.6172C9.16569 30.1091 7.81013 30.4478 6.96291 31.1254C5.77679 32.3112 6.28512 33.6664 7.30179 34.5134C7.64068 34.6828 7.64069 34.6827 7.81013 35.0215Z" fill="#2C473E"/>
<path d="M23.3991 68.2236C23.3991 67.3766 22.8908 66.5296 22.0435 67.2072C21.5352 67.2072 21.1963 67.3766 20.8574 67.7154C20.5185 68.2236 20.5185 68.9011 20.688 69.4093C20.8574 69.9175 21.3657 70.2563 21.8741 70.4257C22.3824 70.4257 22.7213 70.2563 22.8908 70.0869C23.3991 69.5787 23.3991 68.9011 23.3991 68.2236Z" fill="#2C473E"/>
<path d="M22.3824 60.6011C21.8741 60.7705 21.5352 60.9399 21.3658 61.2786C21.1963 61.448 21.1963 61.7868 21.0269 61.9562V62.1256C21.0269 62.6338 21.3657 63.3114 21.8741 63.6502C22.3824 63.989 23.0602 63.8196 23.3991 63.4808L23.5686 63.3114C23.738 63.142 23.9075 62.9726 23.9075 62.6338C23.9075 62.8032 23.9075 62.8032 23.9075 62.9726C24.2464 62.8032 24.2463 62.1256 23.738 61.6174C23.5686 60.9399 23.0602 60.6011 22.3824 60.6011ZM23.9075 62.295C23.9075 62.4644 23.9075 62.6338 23.9075 62.6338C23.9075 62.4644 23.9075 62.295 23.9075 62.295ZM23.9075 61.9562C23.9075 61.7868 23.9075 61.7868 23.9075 61.9562V61.9562Z" fill="#2C473E"/>
<path d="M16.4519 42.3058C14.9269 43.4916 15.6047 46.0325 17.638 46.2019H17.8075C18.3158 46.5407 18.8241 46.5407 19.163 45.8631C19.3325 45.6937 19.5019 45.6937 19.6714 45.5243C20.1797 44.8468 20.3491 43.8304 19.8408 42.9834C19.6714 42.6446 19.3325 42.4752 18.9936 42.3058C18.3158 41.7976 17.1297 41.6282 16.4519 42.3058Z" fill="#2C473E"/>
<path d="M10.8601 29.4317C11.3684 30.1093 12.2157 30.1093 12.8934 29.7705C13.2323 29.7705 13.5712 29.4317 13.7407 29.2624C14.5879 28.7542 15.2657 27.7378 14.9268 26.552C14.4184 24.5192 11.199 24.6886 10.3518 26.2132C9.84341 26.8908 9.67396 27.9072 10.1823 28.7542C10.3517 29.093 10.5212 29.2623 10.8601 29.4317Z" fill="#2C473E"/>
</svg>

<?xml version="1.0" encoding="utf-8"?>
<!-- Generator: Adobe Illustrator 23.0.1, SVG Export Plug-In . SVG Version: 6.00 Build 0)  -->
<svg version="1.1" id="Layer_1" xmlns="http://www.w3.org/2000/svg" xmlns:xlink="http://www.w3.org/1999/xlink" x="0px" y="0px"
	 viewBox="0 0 69 128" style="enable-background:new 0 0 69 128;" xml:space="preserve">
<style type="text/css">
	.st0{fill-rule:evenodd;clip-rule:evenodd;fill:#FFFFFF;}
</style>
<path class="st0" d="M34.9,1.1C24.2,7.7,10.5-1.4,3.6,12c-4.7,9.1-1.7,45.4,5.1,54.4c6.8,8.8,21.9,8.5,32.4,7.6
	c19.1-1.5,22.5-9,25.1-27.6c2.2-16.6,6.6-35.1-11.9-41.7"/>
<path d="M68.5,33c-0.3-9,0.5-22.2-7.1-28.5C57.1,1.1,51.7,1.1,46.6,1c-5.9-0.3-11.9-0.3-17.8-0.5c-9,0-24.4-1.2-27.1,10
	c-1.5,6.1-1,12.9-0.5,19c0.5,7.1,0.7,14.2,1.7,21.3c1,6.8,0.8,17.8,6.9,22.2c5.9,4.2,15.3,3.6,22.2,3.4c-0.2,9.5-0.3,18.8,0.2,28.3
	c0.2,3.6,0.5,7.1,0.7,10.8c0.2,2.5-0.5,8.1,0.8,10.3c-0.2-0.2,1.7-1,1.7-0.8c-0.2,0.5-1.4,0.8-1,1.5c0.3,0.8,0.7,0.2,0.8,1.2
	c0.2,0.7,1.9-1,1.9-1.2c1-1.4,0.5-4.1,0.5-5.8c-0.2-5.1-0.7-10.2-1-15.2c-0.3-5.4-0.3-10.8-0.3-16.4c0-2.9,0-5.9,0-8.8
	c0-3.9-0.3-4.1,3.2-4.1c9.3-0.3,20.7,0.3,25.1-9.7C69.1,56.5,68.8,43.8,68.5,33z M62.5,58.4c-0.8,4.2-1.9,9.1-5.9,11.3
	c-3.6,2-8.8,1.7-12.7,1.9c-1.7,0.2-4.2,0.8-5.9,0.3c-1.9-0.5-0.8,1-1.7-1.4c-0.5-1.2,0.2-2,0.2-3.2c0.2-4.4-0.3-7.3,2.4-11.3
	c2.5-3.7,6.6-6.1,9-10c0.8-1.4,2.5-3.9,1.4-5.4c-1.7-2.2-3.4,0.2-4.2,1.5c-2.2,3.6-5.1,6.1-8,9.1c0.5-2.7,1.9-5.9,2-8.6
	c0.2-2.7-1.5-4.9-3.6-1.9C32,45.7,31.9,55.2,32,60.9c-3.2-3-3.6-5.9-3.9-10.2c0-0.8-1-15.4-3.6-14.7c-2.2,0.5-1.4,8.3-1.2,9.8
	c0.3,3.9,0.2,8.6,1.5,12.4c1.2,3,3.9,4.7,5.8,7.3c1.4,2,1.4,3.9,1.5,6.6c-5.6,0-13,0.7-18.3-1.7c-5.4-2.5-5.3-10-5.9-15.1
	c-1.2-7.6-1.7-15.1-2.2-22.7c-0.3-6.3-1-12.7-0.2-19C7,3.5,20.2,4.9,28.1,4.9c5.8,0,11.7,0,17.5,0.3C50,5.4,55.4,5,59,8.1
	c3.6,3,4.1,7.6,4.4,11.9c0.5,6.6,1,13.2,1,19.8C64.2,46,63.9,52.3,62.5,58.4z"/>
<path d="M12.9,42c0.8-0.5,1.4-2.4,0.3-3c0,0.2,0.2,0.3,0.2,0.3c-0.7-1.5-1.9-1.4-2.5-0.3c-0.7,0.7-0.8,1.7-0.3,2.2
	c0,0.2,0.2,0.3,0.2,0.5c0.2,0.3,0.7,0.3,1,0.5c-0.3-0.2-0.7-0.3-0.8-0.5C11.5,42.1,12,42.5,12.9,42z"/>
<path d="M16.3,53.7c2.5-3-4.2-5.8-3.4-1.5c0,0.2,0.2,0.5,0.3,0.7C13.6,54.2,14.9,55.2,16.3,53.7z M16.1,51.5
	C16.1,51.5,16.1,51.3,16.1,51.5C16.1,51.3,16.1,51.3,16.1,51.5C16.1,51.3,16.1,51.5,16.1,51.5z M14.6,50.6c0,0-0.2,0-0.3,0.2h-0.2
	C14.2,50.6,14.4,50.6,14.6,50.6z"/>
<path d="M17.5,62.5c-0.3-0.3-0.8-0.5-1.4-0.3c-0.3,0-0.5,0.2-0.7,0.3c-0.3,0-0.7,0.2-1,0.5c-0.7,0.5-0.5,1.7,0.3,2.2
	C16.6,67.4,19,63.3,17.5,62.5z"/>
<path d="M17,35.9c1,0.5,2.2-1.4,2-2.2c0,0.2,0,0.2-0.2,0.2c0.3-1.9-0.8-2.4-2.4-2c-0.3,0.3-0.8,0.8-1,1.5
	C15.3,34.5,15.6,35.4,17,35.9z M18.7,33.5C18.7,33.5,18.8,33.3,18.7,33.5C18.8,33.3,18.7,33.5,18.7,33.5z"/>
<path d="M20.9,58.4c0-1.9-1.5-2.5-2.7-1.4c-0.7-0.2-1.4,0.7-1.4,1.4c0,0.5,0.3,0.8,0.7,1C18.5,60.4,21.2,60.1,20.9,58.4z"/>
<path d="M10.4,60.3C10.7,60.4,10.4,60.3,10.4,60.3L10.4,60.3z"/>
<path d="M10.4,60.3C10.5,60.4,10.5,60.3,10.4,60.3L10.4,60.3z"/>
<path d="M11.5,55.5c-0.7,0-1.4,0.3-1.4,1.2v0.2c-0.5,1-0.7,2.5,0.2,3.4c0.3,0.3,0.7,0.5,1.2,0.5c2.4,0.3,2-3.6,1.2-4.6
	C12.4,55.7,12,55.5,11.5,55.5z M12.7,57.6c0-0.2,0-0.3,0-0.5c0.2,0.2,0.2,0.5,0.2,0.7C12.9,57.7,12.7,57.7,12.7,57.6z"/>
<path d="M10.7,46c0-0.3,0-0.7,0-1c0.2-1-0.5-1.7-1.5-1.5c-0.5,0.2-0.7,0.5-0.8,0.8c0-0.2,0,0-0.2,0.2C8,44.7,8,44.8,8,45
	C7,46.9,9.7,48.1,10.7,46z M9.7,46C9.7,45.9,9.8,45.9,9.7,46C9.8,45.9,9.8,46,9.7,46z"/>
<path d="M7.6,46.2C7.6,46,7.3,45.5,7.6,46.2L7.6,46.2z"/>
<path d="M7.8,35C8,35.5,8.5,35.4,9,35.2c0.8,0.2,1.5-0.2,2-0.8c0.2-0.2,0.2-0.3,0.2-0.7c0.3-1,0.2-2.5-1-3c-1-0.5-2.4-0.2-3.2,0.5
	c-1.2,1.2-0.7,2.5,0.3,3.4C7.6,34.7,7.6,34.7,7.8,35z"/>
<path d="M23.4,68.2c0-0.8-0.5-1.7-1.4-1c-0.5,0-0.8,0.2-1.2,0.5c-0.3,0.5-0.3,1.2-0.2,1.7c0.2,0.5,0.7,0.8,1.2,1
	c0.5,0,0.8-0.2,1-0.3C23.4,69.6,23.4,68.9,23.4,68.2z"/>
<path d="M22.4,60.6c-0.5,0.2-0.8,0.3-1,0.7c-0.2,0.2-0.2,0.5-0.3,0.7v0.2c0,0.5,0.3,1.2,0.8,1.5c0.5,0.3,1.2,0.2,1.5-0.2l0.2-0.2
	c0.2-0.2,0.3-0.3,0.3-0.7c0,0.2,0,0.2,0,0.3c0.3-0.2,0.3-0.8-0.2-1.4C23.6,60.9,23.1,60.6,22.4,60.6z M23.9,62.3c0,0.2,0,0.3,0,0.3
	C23.9,62.5,23.9,62.3,23.9,62.3z M23.9,62C23.9,61.8,23.9,61.8,23.9,62L23.9,62z"/>
<path d="M16.5,42.3c-1.5,1.2-0.8,3.7,1.2,3.9h0.2c0.5,0.3,1,0.3,1.4-0.3c0.2-0.2,0.3-0.2,0.5-0.3c0.5-0.7,0.7-1.7,0.2-2.5
	c-0.2-0.3-0.5-0.5-0.8-0.7C18.3,41.8,17.1,41.6,16.5,42.3z"/>
<path d="M10.9,29.4c0.5,0.7,1.4,0.7,2,0.3c0.3,0,0.7-0.3,0.8-0.5c0.8-0.5,1.5-1.5,1.2-2.7c-0.5-2-3.7-1.9-4.6-0.3
	c-0.5,0.7-0.7,1.7-0.2,2.5C10.4,29.1,10.5,29.3,10.9,29.4z"/>
</svg>
